X: 8150
T: Cook In The Kitchen, The
R: jig
M: 6/8
K: Gmajor
GDG {A}GAG|FDE F2A|GDG {A}GDG|BdB cAG|
{A}GDG BDG|FDE F2d|cAG FGA|BGG {A}G2A:|
|:BcB {d}BAG|ABA {B}AGF|GAG FGA|BdB cAG|
BcB {d}BAG|ABA {B}A2d|cAG FGA|BGG {A}G2 A:|
|:d2 e f2g|a2 g fed|cAG FGA|BdB cAG|
d2 e f2 g|a2 g fed|cAG FGA|1 BGG {A}G2d:|2 BGG {A}G3||

